X: 1
T: Miss Dorothy Leurs
C: Jack Stalker
R: strathspey
Z: 2016 John Chambers <jc:trillian.mit.edu>
N: Suggested tune for The Nor Loch medley dance, along with Mrs Jean Stalker (Reel)
M: C
L: 1/8
K: F
%%indent 120
C2 |\
"F"c2 c>B A2 A<F | "Bb"d2 d>c "Gm"B2 B<G |\
"C"e2 e>d c>d e>g | "Dm"f>e "G7"f>d "C"c2 "C7"c>B |
"F"A2 A<c "F7"F2 A2 | "Bb/D"B2 B<d "G7/B"G2 G>F |\
"C"E2 E>D C>E GB | "F"A2 "Bb"F2 "F"F2 "/E"A2 ||\
"Dm"d2 d>e f2 f>e | "Dm"d>e f>d A2 A>=B |
"C"c2 c<AG2 G>A | "G7"=B>A G>B d2 "C7"c>_B |\
"F"A2 A<c F2 A2 | "Bb"B2 B<d "G7"G2 G>F |\
"C7"E2 E>D C>E G>B | "F"A2 "Bb"F2 "F"F2 |]
